Origami/22x22/apps/anbox.svg

<svg width="22" height="22" version="1" xmlns="http://www.w3.org/2000/svg">
 <rect transform="matrix(0,-1,-1,0,0,0)" x="-20.5" y="-20" width="19" height="19" rx=".95" ry=".95" style="opacity:.2"/>
 <rect transform="matrix(0,-1,-1,0,0,0)" x="-20" y="-20" width="19" height="19" rx=".95" ry=".95" style="fill:#109d8f"/>
 <path d="m8.3007812 3.8007812c-0.028812-0.00687-0.058734-0.00212-0.083984 0.015625-0.051 0.033-0.060484 0.1056563-0.021484 0.1601563l0.6464844 0.921875c-1.0275007 0.469-1.7497976 1.5625625-1.8417976 2.6015625h7c-0.091953-1.038474-0.811222-2.1341636-1.837891-2.6015625l0.646485-0.921875c0.039-0.0545 0.02752-0.1251562-0.02149-0.1601563-0.051-0.035-0.123109-0.017391-0.162109 0.037109l-0.669922 0.9570313c-0.4435-0.172-0.935625-0.2675781-1.453125-0.2675781s-1.010125 0.095578-1.453125 0.2675781l-0.6718699-0.9570309c-0.0195-0.02725-0.047359-0.045859-0.076172-0.052734zm0.7246098 1.9902344c0.215 0 0.386718 0.1699063 0.386718 0.3789063s-0.174218 0.3808593-0.386718 0.3808593c-0.2150004 0-0.3886722-0.1698593-0.3886722-0.3808593 0-0.209 0.1741718-0.3789063 0.3886722-0.3789063zm3 0c0.213 0 0.386718 0.1699063 0.386718 0.3789063s-0.174218 0.3808593-0.386718 0.3808593c-0.215 0-0.388672-0.1698593-0.388672-0.3808593 0-0.209 0.174172-0.3789063 0.388672-0.3789063zm-5.0234379 2.7089844v5.796875c0 0.344 0.16 0.703125 0.5 0.703125h1.4980469v1.6875c0 0.449 0 0.8125 0.5 0.8125s0.501953-0.3635 0.501953-0.8125v-1.6875h1v1.6875c0 0.449-0.03902 0.8125 0.498047 0.8125 0.5 0 0.5-0.249564 0.5-0.8125v-1.6875h1.503906c0.338 0 0.5-0.35965 0.5-0.703125v-5.796875zm-1.4785156 0.00195c-0.52289-0.0013969-0.5234375 0.377393-0.5234375 0.843753v3.308594c0 0.46686 5.479e-4 0.84919 0.5234375 0.847656 0.47711-0.0014 0.4765625-0.381296 0.4765625-0.847656v-3.308594c0-0.4668598 5.475e-4 -0.8451499-0.4765625-0.8437499zm9.9550785 0c-0.478478-0.0013969-0.478516 0.377393-0.478516 0.843753v3.308594c0 0.46686 3.8e-5 0.84894 0.478516 0.847656 0.521522-0.0014 0.521484-0.381296 0.521484-0.847656v-3.308594c0-0.4668598 3.8e-5 -0.8451499-0.521484-0.8437499z" style="opacity:.2"/>
 <path d="m8.3007812 3.3007812c-0.028812-0.00687-0.058734-0.00212-0.083984 0.015625-0.051 0.033-0.060484 0.1056563-0.021484 0.1601563l0.6464844 0.921875c-1.0275007 0.469-1.7497976 1.5625625-1.8417976 2.6015625h7c-0.091953-1.038474-0.811222-2.1341636-1.837891-2.6015625l0.646485-0.921875c0.039-0.0545 0.02752-0.1251562-0.02149-0.1601563-0.051-0.035-0.123109-0.017391-0.162109 0.037109l-0.669922 0.9570313c-0.4435-0.172-0.935625-0.2675781-1.453125-0.2675781s-1.010125 0.095578-1.453125 0.2675781l-0.6718699-0.9570309c-0.0195-0.02725-0.047359-0.045859-0.076172-0.052734zm0.7246098 1.9902344c0.215 0 0.386718 0.1699063 0.386718 0.3789063s-0.174218 0.3808593-0.386718 0.3808593c-0.2150004 0-0.3886722-0.1698593-0.3886722-0.3808593 0-0.209 0.1741718-0.3789063 0.3886722-0.3789063zm3 0c0.213 0 0.386718 0.1699063 0.386718 0.3789063s-0.174218 0.3808593-0.386718 0.3808593c-0.215 0-0.388672-0.1698593-0.388672-0.3808593 0-0.209 0.174172-0.3789063 0.388672-0.3789063zm-5.0234379 2.7089844v5.796875c0 0.344 0.16 0.703125 0.5 0.703125h1.4980469v1.6875c0 0.449 0 0.8125 0.5 0.8125s0.501953-0.3635 0.501953-0.8125v-1.6875h1v1.6875c0 0.449-0.039022 0.8125 0.498047 0.8125 0.5 0 0.5-0.249564 0.5-0.8125v-1.6875h1.503906c0.338 0 0.5-0.35965 0.5-0.703125v-5.796875zm-1.4785156 0.00195c-0.52289-0.0013969-0.5234375 0.377393-0.5234375 0.8437531v3.3085939c0 0.46686 5.479e-4 0.84919 0.5234375 0.847656 0.47711-0.0014 0.4765625-0.381296 0.4765625-0.847656v-3.3085939c0-0.4668599 5.475e-4 -0.84515-0.4765625-0.84375zm9.9550785 0c-0.478478-0.0013969-0.478516 0.377393-0.478516 0.8437531v3.3085939c0 0.46686 3.8e-5 0.84894 0.478516 0.847656 0.521522-0.0014 0.521484-0.381296 0.521484-0.847656v-3.3085939c0-0.4668599 3.8e-5 -0.84515-0.521484-0.84375z" style="fill:#ffffff"/>
 <path d="M 1.9492188,1 C 1.4229188,1 1,1.4229188 1,1.9492188 v 0.5 C 1,1.9229188 1.4229188,1.5 1.9492188,1.5 H 19.050781 C 19.577081,1.5 20,1.9229188 20,2.4492188 v -0.5 C 20,1.4229188 19.577081,1 19.050781,1 Z" style="fill:#ffffff;opacity:.2"/>
</svg>

<svg xmlns="http://www.w3.org/2000/svg" width="22" height="22" version="1">
 <rect style="opacity:0.2" width="19" height="19" x="-20.5" y="-20" rx=".95" ry=".95" transform="matrix(0,-1,-1,0,0,0)"/>
 <rect style="fill:#109d8f" width="19" height="19" x="-20" y="-20" rx=".95" ry=".95" transform="matrix(0,-1,-1,0,0,0)"/>
 <path style="opacity:0.2" d="m 8.3007812,3.8007812 c -0.028812,-0.00687 -0.058734,-0.00212 -0.083984,0.015625 -0.051,0.033 -0.060484,0.1056563 -0.021484,0.1601563 l 0.6464844,0.921875 C 7.8142969,5.3674375 7.092,6.461 7,7.5 h 7 C 13.908047,6.461526 13.188778,5.3658364 12.162109,4.8984375 l 0.646485,-0.921875 c 0.039,-0.0545 0.02752,-0.1251562 -0.02149,-0.1601563 -0.051,-0.035 -0.123109,-0.017391 -0.162109,0.037109 l -0.669922,0.9570313 c -0.4435,-0.172 -0.935625,-0.2675781 -1.453125,-0.2675781 -0.5175,0 -1.010125,0.095578 -1.453125,0.2675781 L 8.3769531,3.8535156 c -0.0195,-0.02725 -0.047359,-0.045859 -0.076172,-0.052734 z M 9.025391,5.7910156 c 0.215,0 0.386718,0.1699063 0.386718,0.3789063 0,0.209 -0.174218,0.3808593 -0.386718,0.3808593 -0.2150004,0 -0.3886722,-0.1698593 -0.3886722,-0.3808593 0,-0.209 0.1741718,-0.3789063 0.3886722,-0.3789063 z m 3,0 c 0.213,0 0.386718,0.1699063 0.386718,0.3789063 0,0.209 -0.174218,0.3808593 -0.386718,0.3808593 -0.215,0 -0.388672,-0.1698593 -0.388672,-0.3808593 0,-0.209 0.174172,-0.3789063 0.388672,-0.3789063 z M 7.0019531,8.5 v 5.796875 c 0,0.344 0.16,0.703125 0.5,0.703125 H 9 v 1.6875 c 0,0.449 0,0.8125 0.5,0.8125 0.5,0 0.501953,-0.3635 0.501953,-0.8125 V 15 h 1 v 1.6875 c 0,0.449 -0.03902,0.8125 0.498047,0.8125 0.5,0 0.5,-0.249564 0.5,-0.8125 V 15 h 1.503906 c 0.338,0 0.5,-0.35965 0.5,-0.703125 V 8.5 Z M 5.5234375,8.50195 C 5.0005475,8.5005531 5,8.879343 5,9.345703 v 3.308594 c 0,0.46686 5.479e-4,0.84919 0.5234375,0.847656 C 6.0005475,13.500553 6,13.120657 6,12.654297 V 9.345703 C 6,8.8788432 6.0005475,8.5005531 5.5234375,8.5019531 Z m 9.9550785,0 C 15.000038,8.5005531 15,8.879343 15,9.345703 v 3.308594 c 0,0.46686 3.8e-5,0.84894 0.478516,0.847656 C 16.000038,13.500553 16,13.120657 16,12.654297 V 9.345703 c 0,-0.4668598 3.8e-5,-0.8451499 -0.521484,-0.8437499 z"/>
 <path style="fill:#ffffff" d="m 8.3007812,3.3007812 c -0.028812,-0.00687 -0.058734,-0.00212 -0.083984,0.015625 -0.051,0.033 -0.060484,0.1056563 -0.021484,0.1601563 l 0.6464844,0.921875 C 7.8142969,4.8674375 7.092,5.961 7,7 h 7 C 13.908047,5.961526 13.188778,4.8658364 12.162109,4.3984375 l 0.646485,-0.921875 c 0.039,-0.0545 0.02752,-0.1251562 -0.02149,-0.1601563 -0.051,-0.035 -0.123109,-0.017391 -0.162109,0.037109 l -0.669922,0.9570313 c -0.4435,-0.172 -0.935625,-0.2675781 -1.453125,-0.2675781 -0.5175,0 -1.010125,0.095578 -1.453125,0.2675781 L 8.3769531,3.3535156 c -0.0195,-0.02725 -0.047359,-0.045859 -0.076172,-0.052734 z M 9.025391,5.2910156 c 0.215,0 0.386718,0.1699063 0.386718,0.3789063 0,0.209 -0.174218,0.3808593 -0.386718,0.3808593 -0.2150004,0 -0.3886722,-0.1698593 -0.3886722,-0.3808593 0,-0.209 0.1741718,-0.3789063 0.3886722,-0.3789063 z m 3,0 c 0.213,0 0.386718,0.1699063 0.386718,0.3789063 0,0.209 -0.174218,0.3808593 -0.386718,0.3808593 -0.215,0 -0.388672,-0.1698593 -0.388672,-0.3808593 0,-0.209 0.174172,-0.3789063 0.388672,-0.3789063 z M 7.0019531,8 v 5.796875 c 0,0.344 0.16,0.703125 0.5,0.703125 H 9 v 1.6875 C 9,16.6365 9,17 9.5,17 10,17 10.001953,16.6365 10.001953,16.1875 V 14.5 h 1 v 1.6875 C 11.001953,16.6365 10.962931,17 11.5,17 12,17 12,16.750436 12,16.1875 V 14.5 h 1.503906 c 0.338,0 0.5,-0.35965 0.5,-0.703125 V 8 Z M 5.5234375,8.00195 C 5.0005475,8.0005531 5,8.379343 5,8.8457031 v 3.3085939 c 0,0.46686 5.479e-4,0.84919 0.5234375,0.847656 C 6.0005475,13.000553 6,12.620657 6,12.154297 V 8.8457031 c 0,-0.4668599 5.475e-4,-0.84515 -0.4765625,-0.84375 z m 9.9550785,0 C 15.000038,8.0005531 15,8.379343 15,8.8457031 v 3.3085939 c 0,0.46686 3.8e-5,0.84894 0.478516,0.847656 C 16.000038,13.000553 16,12.620657 16,12.154297 V 8.8457031 c 0,-0.4668599 3.8e-5,-0.84515 -0.521484,-0.84375 z"/>
 <path style="opacity:0.2;fill:#ffffff" d="M 1.9492188,1 C 1.4229188,1 1,1.4229188 1,1.9492188 v 0.5 C 1,1.9229188 1.4229188,1.5 1.9492188,1.5 H 19.050781 C 19.577081,1.5 20,1.9229188 20,2.4492188 v -0.5 C 20,1.4229188 19.577081,1 19.050781,1 Z"/>
</svg>
